icons/svg/icons8/rock.svg

<svg width="26" height="26" viewBox="0 0 26 26" fill="none" xmlns="http://www.w3.org/2000/svg">
<path d="M22.9342 7.67901C22.8462 7.46901 22.7502 7.26001 22.6402 7.05501C22.3942 6.59401 21.9322 6.25201 21.7312 5.76701C21.5532 5.33801 21.6732 4.87901 21.4432 4.47501C20.6032 3.00101 20.1882 1.66201 18.3182 1.40601C19.1352 1.95301 19.3702 3.89401 19.2822 4.92501C19.2342 5.47901 19.0042 5.92901 19.0622 6.53801C19.1172 7.10301 19.3512 7.57401 19.3552 8.15101C19.3642 9.51401 18.7342 10.327 19.1932 11.686C19.5992 12.893 19.7702 13.85 18.3292 14.477C17.8092 14.703 17.2362 14.747 16.7692 15.024C16.1572 15.385 16.0342 15.562 15.3232 15.704C14.2372 15.92 13.2142 16.463 13.2242 17.699C13.2302 18.369 13.4372 18.636 13.0102 19.186C12.6772 19.614 12.0922 20.2 11.5242 20.261C11.0892 20.309 10.9102 19.952 10.5232 19.825C10.0672 19.676 9.63121 19.848 9.23521 20.083C7.91621 20.864 5.70621 22.916 4.10221 21.916C3.39521 21.476 3.06021 20.805 2.65821 20.184C1.88721 21.127 1.94621 22.455 3.08221 22.962C4.06021 23.399 5.31321 23.32 6.37821 23.546C7.43921 23.772 8.21721 24.579 9.31121 24.813C11.2792 25.234 12.8802 24.423 14.6842 23.921C15.5552 23.678 16.4402 23.695 17.3072 23.479C18.0872 23.285 18.8112 22.81 19.5742 22.52C20.4462 22.189 20.7632 21.533 21.5532 20.963C22.2422 20.466 22.7042 20.062 23.1872 19.371C24.2512 17.848 23.7462 16.245 23.2002 14.631C22.9852 13.997 22.6442 13.181 22.7362 12.467C22.8272 11.769 23.4812 11.434 23.6782 10.801C23.9822 9.82601 23.3062 8.56301 22.9342 7.67901Z" fill="#333333"/>
<path d="M17.4002 2.15L17.4142 2.158L17.6462 2.222C17.8002 2.265 17.9582 2.307 18.1162 2.349C18.5052 2.453 19.1242 2.618 19.3912 2.765C19.3912 2.772 19.3902 2.779 19.3902 2.786C19.1962 4.7 19.9922 6.008 21.8252 6.785C21.8672 6.803 21.9452 6.836 22.0272 6.873C21.9032 7.35 21.7392 8.091 22.0282 8.909C22.2462 9.529 22.6362 9.908 22.8512 10.105C22.8982 10.209 22.9602 10.376 23.0102 10.559C22.9862 10.672 22.9092 10.875 22.8072 11.038C22.7462 11.135 22.6662 11.233 22.5752 11.349C22.1552 11.869 21.1732 13.085 22.1212 14.995L22.3022 15.355C22.6072 15.955 22.7092 16.157 22.7672 16.684C22.8432 17.379 22.8922 18.17 22.6782 18.766C22.6492 18.848 22.3132 19.079 22.1132 19.216C21.5552 19.599 20.7922 20.122 20.2632 21.071C20.0732 21.413 19.9862 21.569 19.1372 21.724C18.6742 21.809 18.2012 21.874 17.7002 21.943C16.8732 22.057 16.0172 22.174 15.1302 22.396C14.8412 22.468 14.5032 22.53 14.1452 22.595C13.8722 22.644 13.6032 22.694 13.3492 22.747C12.6432 22.897 11.9882 23.08 11.3542 23.256C10.2852 23.553 9.34122 23.815 8.36022 23.878C8.21822 23.69 8.03522 23.496 7.79522 23.316C6.97322 22.691 6.06722 22.681 5.52622 22.675C5.44222 22.674 5.35922 22.676 5.27522 22.667C4.87822 22.609 4.43322 22.521 4.00422 22.436L3.66922 22.369C2.77922 22.194 2.80322 22.008 2.87222 21.45C2.89922 21.228 2.93222 21.027 2.96222 20.836C3.08322 20.066 3.22022 19.194 2.98222 17.995C2.92522 17.715 2.85922 17.439 2.79322 17.165C2.60322 16.379 2.50122 15.915 2.62622 15.524C2.68822 15.333 2.86822 15.086 3.07922 14.799C3.33122 14.456 3.64422 14.029 3.89122 13.499C4.47122 12.243 4.33322 11.059 4.22222 10.107L4.19322 9.878C4.16122 9.594 4.10722 9.286 4.05122 8.969C3.98022 8.569 3.87122 7.965 3.90422 7.78C3.94722 7.721 4.13022 7.573 4.26322 7.466C4.45422 7.311 4.65122 7.148 4.85022 6.963C5.53122 6.321 5.95122 5.6 6.28922 5.021C6.81222 4.122 6.91522 4.04 7.25222 3.987C7.47722 3.952 7.74722 3.934 8.05522 3.934C8.66022 3.934 9.30623 4 9.93023 4.063L10.1262 4.084C10.5442 4.126 10.9582 4.147 11.3552 4.147C13.1752 4.147 14.8302 3.7 16.2692 2.817C16.3702 2.755 16.4742 2.689 16.5842 2.619C16.8002 2.48 17.1702 2.244 17.4002 2.15ZM17.4812 0.113998C16.6722 0.113998 15.8422 0.730998 15.2242 1.109C14.0232 1.845 12.7242 2.145 11.3542 2.145C11.0152 2.145 10.6712 2.126 10.3242 2.092C9.63323 2.023 8.83322 1.933 8.05422 1.933C7.67322 1.933 7.29822 1.954 6.94322 2.01C4.85722 2.337 4.79122 4.271 3.47922 5.507C2.85022 6.098 2.19222 6.389 1.97922 7.275C1.76722 8.155 2.11022 9.244 2.20522 10.098C2.30422 10.984 2.45222 11.842 2.07322 12.661C1.70322 13.461 1.00322 14.027 0.719225 14.917C0.334225 16.12 0.785225 17.214 1.01922 18.387C1.23922 19.49 1.02022 20.138 0.887225 21.204C0.664225 22.978 1.54322 23.991 3.28322 24.333C3.84522 24.443 4.43122 24.568 4.99322 24.648C5.49222 24.723 6.15222 24.581 6.58622 24.91C7.09722 25.293 6.82722 25.859 7.61122 25.888C7.71422 25.892 7.81622 25.894 7.91822 25.894C10.0062 25.894 11.7542 25.134 13.7672 24.705C14.3502 24.581 15.0272 24.485 15.6172 24.338C16.9042 24.017 18.2062 23.931 19.5012 23.692C20.6842 23.475 21.4222 23.104 22.0122 22.045C22.6602 20.882 24.1022 20.727 24.5632 19.442C24.8982 18.505 24.8702 17.496 24.7572 16.467C24.6452 15.435 24.3522 14.988 23.9152 14.107C23.4102 13.095 24.0002 12.9 24.5012 12.104C24.8122 11.609 25.1242 10.796 24.9832 10.204C24.8892 9.808 24.7052 9.262 24.4792 8.924C24.3122 8.674 24.0222 8.553 23.9152 8.247C23.7352 7.737 24.1252 7.122 24.1012 6.594C24.0552 5.6 23.3902 5.277 22.6052 4.945C21.5762 4.508 21.2732 4.049 21.3802 2.99C21.5792 1.011 19.7372 0.732998 18.1862 0.298998C17.9572 0.167998 17.7202 0.113998 17.4812 0.113998Z" fill="#333333"/>
<path d="M11.2513 8.537C11.2423 8.231 11.4533 7.621 11.6643 7.402C12.0093 7.047 12.6253 7.171 13.0363 6.882C13.4783 6.573 15.2753 5.204 15.6723 6.108C15.9573 6.757 15.2623 7.323 15.9033 7.886C16.2043 8.149 16.4683 8.152 16.3523 8.59C16.2743 8.889 15.9553 9.149 15.9373 9.456C15.9183 9.749 16.2533 9.932 16.2543 10.176C16.2563 10.605 15.6893 10.682 15.4053 10.839C14.9123 11.113 14.4023 11.491 14.0093 11.896C13.6073 12.308 13.2683 12.761 12.6183 12.729C11.3023 12.662 11.8773 11.092 11.7673 10.265C11.6893 9.668 11.2693 9.154 11.2513 8.537Z" fill="#333333"/>
<path d="M6.02299 14.378C5.91599 14.221 5.81999 13.83 5.85499 13.644C5.91599 13.341 6.28099 13.198 6.39899 12.907C6.52699 12.595 7.00499 11.268 7.51899 11.608C7.88799 11.851 7.71499 12.383 8.24299 12.462C8.48999 12.497 8.62899 12.409 8.71699 12.679C8.77899 12.863 8.69799 13.107 8.79299 13.274C8.88299 13.434 9.11899 13.416 9.20299 13.545C9.34899 13.769 9.07899 14 8.98199 14.18C8.81699 14.491 8.67699 14.862 8.60899 15.207C8.53699 15.56 8.51299 15.912 8.16299 16.115C7.44899 16.526 7.21899 15.508 6.88199 15.111C6.63699 14.822 6.24199 14.695 6.02299 14.378Z" fill="#333333"/>
</svg>

<?xml version="1.0" encoding="utf-8"?>
<!-- Generator: Adobe Illustrator 15.0.0, SVG Export Plug-In . SVG Version: 6.00 Build 0)  -->
<!DOCTYPE svg PUBLIC "-//W3C//DTD SVG 1.1//EN" "http://www.w3.org/Graphics/SVG/1.1/DTD/svg11.dtd">
<svg version="1.1" id="Layer_1" xmlns="http://www.w3.org/2000/svg" xmlns:xlink="http://www.w3.org/1999/xlink" x="0px" y="0px"
	 width="26px" height="26px" viewBox="0 0 26 26" enable-background="new 0 0 26 26" xml:space="preserve">
<rect fill="none" width="26" height="26"/>
<g>
	<path fill="#333333" d="M22.934,7.679c-0.088-0.21-0.184-0.419-0.294-0.624c-0.246-0.461-0.708-0.803-0.909-1.288
		c-0.178-0.429-0.058-0.888-0.288-1.292c-0.84-1.474-1.255-2.813-3.125-3.069c0.817,0.547,1.052,2.488,0.964,3.519
		c-0.048,0.554-0.278,1.004-0.22,1.613c0.055,0.565,0.289,1.036,0.293,1.613c0.009,1.363-0.621,2.176-0.162,3.535
		c0.406,1.207,0.577,2.164-0.864,2.791c-0.52,0.226-1.093,0.27-1.56,0.547c-0.612,0.361-0.735,0.538-1.446,0.68
		c-1.086,0.216-2.109,0.759-2.099,1.995c0.006,0.67,0.213,0.937-0.214,1.487c-0.333,0.428-0.918,1.014-1.486,1.075
		c-0.435,0.048-0.614-0.309-1.001-0.436c-0.456-0.149-0.892,0.023-1.288,0.258c-1.319,0.781-3.529,2.833-5.133,1.833
		c-0.707-0.44-1.042-1.111-1.444-1.732c-0.771,0.943-0.712,2.271,0.424,2.778c0.978,0.437,2.231,0.358,3.296,0.584
		c1.061,0.226,1.839,1.033,2.933,1.267c1.968,0.421,3.569-0.39,5.373-0.892c0.871-0.243,1.756-0.226,2.623-0.442
		c0.78-0.194,1.504-0.669,2.267-0.959c0.872-0.331,1.189-0.987,1.979-1.557c0.689-0.497,1.151-0.901,1.634-1.592
		c1.064-1.523,0.559-3.126,0.013-4.74c-0.215-0.634-0.556-1.45-0.464-2.164c0.091-0.698,0.745-1.033,0.942-1.666
		C23.982,9.826,23.306,8.563,22.934,7.679z"/>
	<g>
		<g>
			<g>
				<path fill="#333333" d="M17.4,2.15l0.014,0.008l0.232,0.064c0.154,0.043,0.312,0.085,0.47,0.127
					c0.389,0.104,1.008,0.269,1.275,0.416c0,0.007-0.001,0.014-0.001,0.021c-0.194,1.914,0.602,3.222,2.435,3.999
					c0.042,0.018,0.12,0.051,0.202,0.088c-0.124,0.477-0.288,1.218,0.001,2.036c0.218,0.62,0.608,0.999,0.823,1.196
					c0.047,0.104,0.109,0.271,0.159,0.454c-0.024,0.113-0.101,0.316-0.203,0.479c-0.061,0.097-0.141,0.195-0.232,0.311
					c-0.42,0.52-1.402,1.736-0.454,3.646l0.181,0.36c0.305,0.6,0.407,0.802,0.465,1.329c0.076,0.695,0.125,1.486-0.089,2.082
					c-0.029,0.082-0.365,0.313-0.565,0.45c-0.558,0.383-1.321,0.906-1.85,1.855c-0.19,0.342-0.277,0.498-1.126,0.653
					c-0.463,0.085-0.936,0.15-1.437,0.219c-0.827,0.114-1.683,0.231-2.57,0.453c-0.289,0.072-0.627,0.134-0.985,0.199
					c-0.273,0.049-0.542,0.099-0.796,0.152c-0.706,0.15-1.361,0.333-1.995,0.509c-1.069,0.297-2.013,0.559-2.994,0.622
					c-0.142-0.188-0.325-0.382-0.565-0.562c-0.822-0.625-1.728-0.635-2.269-0.641c-0.084-0.001-0.167,0.001-0.251-0.008
					c-0.397-0.058-0.842-0.146-1.271-0.231l-0.335-0.067c-0.89-0.175-0.866-0.361-0.797-0.919c0.027-0.222,0.06-0.423,0.09-0.614
					c0.121-0.77,0.258-1.642,0.02-2.841c-0.057-0.28-0.123-0.556-0.189-0.83c-0.19-0.786-0.292-1.25-0.167-1.641
					c0.062-0.191,0.242-0.438,0.453-0.725c0.252-0.343,0.565-0.77,0.812-1.3c0.58-1.256,0.442-2.44,0.331-3.392L4.193,9.878
					C4.161,9.594,4.107,9.286,4.051,8.969c-0.071-0.4-0.18-1.004-0.147-1.189C3.947,7.721,4.13,7.573,4.263,7.466
					C4.454,7.311,4.651,7.148,4.85,6.963C5.531,6.321,5.951,5.6,6.289,5.021c0.523-0.899,0.626-0.981,0.963-1.034
					c0.225-0.035,0.495-0.053,0.803-0.053C8.66,3.934,9.306,4,9.93,4.063l0.196,0.021c0.418,0.042,0.832,0.063,1.229,0.063
					c1.82,0,3.475-0.447,4.914-1.33c0.101-0.062,0.205-0.128,0.315-0.198C16.8,2.48,17.17,2.244,17.4,2.15 M17.481,0.114
					c-0.809,0-1.639,0.617-2.257,0.995c-1.201,0.736-2.5,1.036-3.87,1.036c-0.339,0-0.683-0.019-1.03-0.053
					c-0.691-0.069-1.491-0.159-2.27-0.159c-0.381,0-0.756,0.021-1.111,0.077C4.857,2.337,4.791,4.271,3.479,5.507
					C2.85,6.098,2.192,6.389,1.979,7.275c-0.212,0.88,0.131,1.969,0.226,2.823c0.099,0.886,0.247,1.744-0.132,2.563
					c-0.37,0.8-1.07,1.366-1.354,2.256c-0.385,1.203,0.066,2.297,0.3,3.47c0.22,1.103,0.001,1.751-0.132,2.817
					c-0.223,1.774,0.656,2.787,2.396,3.129c0.562,0.11,1.148,0.235,1.71,0.315c0.499,0.075,1.159-0.067,1.593,0.262
					c0.511,0.383,0.241,0.949,1.025,0.978c0.103,0.004,0.205,0.006,0.307,0.006c2.088,0,3.836-0.76,5.849-1.189
					c0.583-0.124,1.26-0.22,1.85-0.367c1.287-0.321,2.589-0.407,3.884-0.646c1.183-0.217,1.921-0.588,2.511-1.647
					c0.648-1.163,2.09-1.318,2.551-2.603c0.335-0.937,0.307-1.946,0.194-2.975c-0.112-1.032-0.405-1.479-0.842-2.36
					C23.41,13.095,24,12.9,24.501,12.104c0.311-0.495,0.623-1.308,0.482-1.9c-0.094-0.396-0.278-0.942-0.504-1.28
					c-0.167-0.25-0.457-0.371-0.564-0.677c-0.18-0.51,0.21-1.125,0.186-1.653c-0.046-0.994-0.711-1.317-1.496-1.649
					c-1.029-0.437-1.332-0.896-1.225-1.955c0.199-1.979-1.643-2.257-3.194-2.691C17.957,0.168,17.72,0.114,17.481,0.114
					L17.481,0.114z"/>
			</g>
		</g>
	</g>
	<g>
		<g>
			<path fill="#333333" d="M11.251,8.537c-0.009-0.306,0.202-0.916,0.413-1.135c0.345-0.355,0.961-0.231,1.372-0.52
				c0.442-0.309,2.239-1.678,2.636-0.774c0.285,0.649-0.41,1.215,0.231,1.778c0.301,0.263,0.565,0.266,0.449,0.704
				c-0.078,0.299-0.397,0.559-0.415,0.866c-0.019,0.293,0.316,0.476,0.317,0.72c0.002,0.429-0.565,0.506-0.849,0.663
				c-0.493,0.274-1.003,0.652-1.396,1.057c-0.402,0.412-0.741,0.865-1.391,0.833c-1.316-0.067-0.741-1.637-0.851-2.464
				C11.689,9.668,11.269,9.154,11.251,8.537z"/>
		</g>
	</g>
	<g>
		<g>
			<path fill="#333333" d="M6.023,14.378c-0.107-0.157-0.203-0.548-0.168-0.734c0.061-0.303,0.426-0.446,0.544-0.737
				c0.128-0.312,0.606-1.639,1.12-1.299c0.369,0.243,0.196,0.775,0.724,0.854c0.247,0.035,0.386-0.053,0.474,0.217
				c0.062,0.184-0.019,0.428,0.076,0.595c0.09,0.16,0.326,0.142,0.41,0.271c0.146,0.224-0.124,0.455-0.221,0.635
				c-0.165,0.311-0.305,0.682-0.373,1.027c-0.072,0.353-0.096,0.705-0.446,0.908c-0.714,0.411-0.944-0.607-1.281-1.004
				C6.637,14.822,6.242,14.695,6.023,14.378z"/>
		</g>
	</g>
</g>
</svg>
